packages/icons/svg/Fill/car.svg

<svg width="24" height="24" viewBox="0 0 24 24" fill="none" xmlns="http://www.w3.org/2000/svg">
<g id="Icon/Fill/car">
<path id="Mask" fill-rule="evenodd" clip-rule="evenodd" d="M18.9795 17.9999C18.9795 18.5519 18.5315 18.9999 17.9795 18.9999C17.4275 18.9999 16.9795 18.5519 16.9795 17.9999C16.9795 17.4479 17.4275 16.9999 17.9795 16.9999C18.5315 16.9999 18.9795 17.4479 18.9795 17.9999ZM6.97949 17.9999C6.97949 18.5519 6.53149 18.9999 5.97949 18.9999C5.42749 18.9999 4.97949 18.5519 4.97949 17.9999C4.97949 17.4479 5.42749 16.9999 5.97949 16.9999C6.53149 16.9999 6.97949 17.4479 6.97949 17.9999ZM19.9795 12.4799V14.9999H16.9795V10.0809L19.9795 12.4799ZM21.6045 11.2189L16.9795 7.51891V4.99991C16.9795 3.89691 16.1665 2.99991 15.1665 2.99991H3.79149C2.79249 2.99991 1.97949 3.89691 1.97949 4.99991V14.9999C1.97949 15.8729 2.49249 16.6089 3.20049 16.8819C3.06049 17.2279 2.97949 17.6039 2.97949 17.9999C2.97949 19.6539 4.32549 20.9999 5.97949 20.9999C7.63349 20.9999 8.97949 19.6539 8.97949 17.9999C8.97949 17.6469 8.90749 17.3139 8.79449 16.9999H11.9795H15.1645C15.0515 17.3139 14.9795 17.6469 14.9795 17.9999C14.9795 19.6539 16.3255 20.9999 17.9795 20.9999C19.6335 20.9999 20.9795 19.6539 20.9795 17.9999C20.9795 17.6469 20.9075 17.3139 20.7945 16.9999H20.9795C21.5325 16.9999 21.9795 16.5529 21.9795 15.9999V11.9999C21.9795 11.6959 21.8415 11.4089 21.6045 11.2189Z" fill="#000000"/>
</g>
</svg>

<svg fill="none" height="24" viewBox="0 0 24 24" width="24" xmlns="http://www.w3.org/2000/svg"><path clip-rule="evenodd" d="m18.9794 18.0001c0 .552-.448 1-1 1s-1-.448-1-1 .448-1 1-1 1 .448 1 1zm-12.00003 0c0 .552-.448 1-1 1s-1-.448-1-1 .448-1 1-1 1 .448 1 1zm13.00003-5.5202v2.52h-3v-4.919zm1.625-1.2609-4.625-3.7v-2.519c0-1.103-.813-2-1.813-2h-11.37503c-.999 0-1.812.897-1.812 2v10c0 .873.513 1.609 1.221 1.882-.14.346-.221.722-.221 1.118 0 1.654 1.346 3 3 3s3-1.346 3-3c0-.353-.072-.686-.185-1h3.18503 3.185c-.113.314-.185.647-.185 1 0 1.654 1.346 3 3 3s3-1.346 3-3c0-.353-.072-.686-.185-1h.185c.553 0 1-.447 1-1v-4c0-.304-.138-.591-.375-.781z" fill="#6b7280" fill-rule="evenodd"/></svg>
